X: 03024
T: DONNIE MACLEAN
C: Bob McQuillen 26 Nov 76
B: Bob's Note Book 03 #24
%R: jig
%D:1976
Z: 2020 John Chambers <jc:trillian.mit.edu>
M: 6/8
L: 1/8
K: A
E \
| AcA B2d | c2e dcd | efe ecA | dcd BGE |\
| AcA B2d | c2e dcd | efg aed | cAA A2 :|
|: E \
| C2C D2D | EFE ECA,| EFG AGA | BcB BGE |\
| cdc B2B | Ace fga | ecA Bed | cAA A2 :|
%%begintext align
%% With fondest Best Wishes to
%% the fine fiddler from Westminster
%% West, UT.
%%endtext

%%sep 1 1 500

%%sep 1 1 500

